X: 100127
T: Joe Burke's #2
S: Mike Reynolds
Z: B.Black
R: jig
M: 6/8
L: 1/8
K: Dmix
A | FAD FAD | fed cAG | EGC EGC | cBd cAG |
FAD FAD | fed cAG | EFG BAG | FAD D2 :|
g | fed ceA | ceA cBA | fed fed | cec d2 e |
fed ceA | ceA cBA | EFG BAG | FAD D2 :|
